X: 1
T: The Haunted House
R: jig
M: 6/8
L: 1/8
K: Gmaj
D |: GFG AGA | BGE EDE | GBd e2 e | ege dBA |
GFG AGA | BGE EDE | GBd ege | dBA G2 D :|
|:GBd e2 e | ege dBA | GAB d2 B | ded BAG |
[1 GBd e2 e | ege dBA | GBd ege | dBA G3 :|
[2 GFG AGA | BGE EDE | GBd ege | dBA G2 D ||


Tune 1098	Setting 14344

